public/assets/imgs/projetos/icons/piscina.svg

<svg fill="none" height="40" viewBox="0 0 45 40" width="45" xmlns="http://www.w3.org/2000/svg"><path clip-rule="evenodd" d="m17.7141 1.71254c-2.1454 0-3.1057 1.56743-3.3446 2.42987v3.31936h16.847v-3.42507c0-.06481.0075-.1294.0222-.19254.2994-1.28127 1.7267-3.84416 5.0567-3.84416 2.0792 0 3.3989 1.01999 4.1539 2.28757.724 1.21529.925 2.63571.925 3.58399 0 .4729-.3883.85627-.8672.85627s-.8671-.38337-.8671-.85627c0-.76426-.1707-1.85148-.6855-2.7157-.4836-.81194-1.2698-1.44332-2.6591-1.44332-2.1455 0-3.1058 1.56743-3.3446 2.42987v25.86299c.2112-.1762.4166-.3882.6114-.6388.442-.5684.7853-1.2852.9898-2.0883h1.9098c.2044.8031.5478 1.5199.9897 2.0883.7305.9394 1.6084 1.3368 2.391 1.3368s1.6605-.3974 2.391-1.3368c.4419-.5684.7853-1.2852.9897-2.0883h1.7768c-.2359 1.1748-.7125 2.2586-1.391 3.1312-.9989 1.2847-2.3538 2.0064-3.7665 2.0064s-2.7676-.7217-3.7665-2.0064c-.2093-.2691-.3994-.5584-.5691-.8642-.1698.3058-.3599.5951-.5692.8642-.9989 1.2847-2.3537 2.0064-3.7664 2.0064-1.4128 0-2.7676-.7217-3.7665-2.0064-.2093-.2691-.3994-.5584-.5692-.8642-.1697.3058-.3598.5951-.5691.8642-.9989 1.2847-2.3538 2.0064-3.7665 2.0064s-2.7676-.7217-3.7665-2.0064c-.2093-.2691-.3994-.5584-.5691-.8642-.1698.3058-.3598.5951-.5692.8642-.9989 1.2847-2.3537 2.0064-3.7665 2.0064-1.4127 0-2.7675-.7217-3.7664-2.0064-.20935-.2691-.39944-.5584-.56918-.8642-.16973.3058-.35982.5951-.56913.8642-.99894 1.2847-2.35378 2.0064-3.76649 2.0064s-2.76756-.7217-3.7665-2.0064c-.67853-.8726-1.155095-1.9564-1.391-3.1312h1.77676c.20444.8031.54783 1.5199.98977 2.0883.73048.9394 1.60833 1.3368 2.39097 1.3368s1.66049-.3974 2.39097-1.3368c.44194-.5684.78532-1.2852.98976-2.0883h1.90977c.2045.8031.5478 1.5199.9898 2.0883.3716.4779.7814.8156 1.1975 1.032v-26.3619c0-.06481.0074-.1294.0222-.19254.2994-1.28127 1.7267-3.84416 5.0566-3.84416 2.0792 0 3.3989 1.01999 4.154 2.28757.7239 1.21529.9249 2.63571.9249 3.58399 0 .4729-.3882.85627-.8671.85627s-.8671-.38337-.8671-.85627c0-.76426-.1707-1.85148-.6855-2.7157-.4837-.81194-1.2699-1.44332-2.6592-1.44332zm-3.3446 28.92866c.63-.1444 1.2843-.5469 1.8502-1.2746.4194-.5394.75-1.2124.9574-1.966h-2.8076zm4.7822-3.2406c.2073.7536.538 1.4266.9573 1.966.7305.9394 1.6084 1.3368 2.391 1.3368s1.6605-.3974 2.391-1.3368c.4193-.5394.75-1.2124.9573-1.966zm8.6712 0c.2074.7536.538 1.4266.9574 1.966.7305.9394 1.6083 1.3368 2.391 1.3368.015 0 .0301-.0002.0452-.0005v-3.3023zm-13.4534-13.7003v-4.52599h16.847v4.52599zm0 6.3609v-4.6484h16.847v4.6484zm0 5.6269v-3.9144h16.847v3.9144zm-14.3695 9.1743c.235905 1.1748.71247 2.2586 1.391 3.1312.99894 1.2847 2.35379 2.0064 3.7665 2.0064s2.76755-.7217 3.76649-2.0064c.20931-.2691.3994-.5584.56913-.8642.16974.3058.35983.5951.56918.8642.9989 1.2847 2.3537 2.0064 3.7664 2.0064 1.4128 0 2.7676-.7217 3.7665-2.0064.2094-.2691.3994-.5584.5692-.8642.1697.3058.3598.5951.5691.8642.9989 1.2847 2.3538 2.0064 3.7665 2.0064s2.7676-.7217 3.7665-2.0064c.2093-.2691.3994-.5584.5691-.8642.1698.3058.3599.5951.5692.8642.9989 1.2847 2.3537 2.0064 3.7665 2.0064 1.4127 0 2.7675-.7217 3.7664-2.0064.2093-.2691.3994-.5584.5692-.8642.1697.3058.3598.5951.5691.8642.9989 1.2847 2.3538 2.0064 3.7665 2.0064s2.7676-.7217 3.7665-2.0064c.6785-.8726 1.1551-1.9564 1.391-3.1312h-1.7768c-.2044.8031-.5478 1.5199-.9897 2.0883-.7305.9394-1.6084 1.3368-2.391 1.3368s-1.6605-.3974-2.391-1.3368c-.4419-.5684-.7853-1.2852-.9897-2.0883h-1.9098c-.2045.8031-.5478 1.5199-.9898 2.0883-.7305.9394-1.6083 1.3368-2.3909 1.3368-.7827 0-1.6605-.3974-2.391-1.3368-.442-.5684-.7853-1.2852-.9898-2.0883h-1.9098c-.2044.8031-.5478 1.5199-.9897 2.0883-.7305.9394-1.6084 1.3368-2.391 1.3368s-1.6605-.3974-2.391-1.3368c-.4419-.5684-.7853-1.2852-.9897-2.0883h-1.9098c-.2045.8031-.5478 1.5199-.9898 2.0883-.7305.9394-1.6083 1.3368-2.391 1.3368-.7826 0-1.6604-.3974-2.3909-1.3368-.442-.5684-.7853-1.2852-.9898-2.0883h-1.90977c-.20444.8031-.54782 1.5199-.98976 2.0883-.73048.9394-1.60833 1.3368-2.39097 1.3368s-1.66049-.3974-2.39097-1.3368c-.44194-.5684-.78533-1.2852-.98977-2.0883z" fill="#000" fill-rule="evenodd"/></svg>

<svg width="45" height="40" viewBox="0 0 45 40" fill="none" xmlns="http://www.w3.org/2000/svg">
<path fill-rule="evenodd" clip-rule="evenodd" d="M17.7141 1.71254C15.5687 1.71254 14.6084 3.27997 14.3695 4.14241V7.46177H31.2165V4.0367C31.2165 3.97189 31.224 3.9073 31.2387 3.84416C31.5381 2.56289 32.9654 0 36.2954 0C38.3746 0 39.6943 1.01999 40.4493 2.28757C41.1733 3.50286 41.3743 4.92328 41.3743 5.87156C41.3743 6.34446 40.986 6.72783 40.5071 6.72783C40.0282 6.72783 39.64 6.34446 39.64 5.87156C39.64 5.1073 39.4693 4.02008 38.9545 3.15586C38.4709 2.34392 37.6847 1.71254 36.2954 1.71254C34.1499 1.71254 33.1896 3.27997 32.9508 4.14241V30.0054C33.162 29.8292 33.3674 29.6172 33.5622 29.3666C34.0042 28.7982 34.3475 28.0814 34.552 27.2783H36.4618C36.6662 28.0814 37.0096 28.7982 37.4515 29.3666C38.182 30.306 39.0599 30.7034 39.8425 30.7034C40.6251 30.7034 41.503 30.306 42.2335 29.3666C42.6754 28.7982 43.0188 28.0814 43.2232 27.2783L45 27.2783C44.7641 28.4531 44.2875 29.5369 43.609 30.4095C42.6101 31.6942 41.2552 32.4159 39.8425 32.4159C38.4298 32.4159 37.0749 31.6942 36.076 30.4095C35.8667 30.1404 35.6766 29.8511 35.5069 29.5453C35.3371 29.8511 35.147 30.1404 34.9377 30.4095C33.9388 31.6942 32.584 32.4159 31.1713 32.4159C29.7585 32.4159 28.4037 31.6942 27.4048 30.4095C27.1955 30.1404 27.0054 29.8511 26.8356 29.5453C26.6659 29.8511 26.4758 30.1404 26.2665 30.4095C25.2676 31.6942 23.9127 32.4159 22.5 32.4159C21.0873 32.4159 19.7324 31.6942 18.7335 30.4095C18.5242 30.1404 18.3341 29.8511 18.1644 29.5453C17.9946 29.8511 17.8046 30.1404 17.5952 30.4095C16.5963 31.6942 15.2415 32.4159 13.8287 32.4159C12.416 32.4159 11.0612 31.6942 10.0623 30.4095C9.85295 30.1404 9.66286 29.8511 9.49312 29.5453C9.32339 29.8511 9.1333 30.1404 8.92399 30.4095C7.92505 31.6942 6.57021 32.4159 5.1575 32.4159C3.74479 32.4159 2.38994 31.6942 1.391 30.4095C0.71247 29.5369 0.235905 28.4531 0 27.2783H1.77676C1.9812 28.0814 2.32459 28.7982 2.76653 29.3666C3.49701 30.306 4.37486 30.7034 5.1575 30.7034C5.94014 30.7034 6.81799 30.306 7.54847 29.3666C7.99041 28.7982 8.33379 28.0814 8.53823 27.2783H10.448C10.6525 28.0814 10.9958 28.7982 11.4378 29.3666C11.8094 29.8445 12.2192 30.1822 12.6353 30.3986V4.0367C12.6353 3.97189 12.6427 3.9073 12.6575 3.84416C12.9569 2.56289 14.3842 0 17.7141 0C19.7933 0 21.113 1.01999 21.8681 2.28757C22.592 3.50286 22.793 4.92328 22.793 5.87156C22.793 6.34446 22.4048 6.72783 21.9259 6.72783C21.447 6.72783 21.0588 6.34446 21.0588 5.87156C21.0588 5.1073 20.8881 4.02008 20.3733 3.15586C19.8896 2.34392 19.1034 1.71254 17.7141 1.71254ZM14.3695 30.6412C14.9995 30.4968 15.6538 30.0943 16.2197 29.3666C16.6391 28.8272 16.9697 28.1542 17.1771 27.4006H14.3695V30.6412ZM19.1517 27.4006C19.359 28.1542 19.6897 28.8272 20.109 29.3666C20.8395 30.306 21.7174 30.7034 22.5 30.7034C23.2826 30.7034 24.1605 30.306 24.891 29.3666C25.3103 28.8272 25.641 28.1542 25.8483 27.4006H19.1517ZM27.8229 27.4006C28.0303 28.1542 28.3609 28.8272 28.7803 29.3666C29.5108 30.306 30.3886 30.7034 31.1713 30.7034C31.1863 30.7034 31.2014 30.7032 31.2165 30.7029V27.4006H27.8229ZM14.3695 13.7003V9.17431H31.2165V13.7003H14.3695ZM14.3695 20.0612V15.4128H31.2165V20.0612H14.3695ZM14.3695 25.6881V21.7737H31.2165V25.6881H14.3695ZM0 34.8624C0.235905 36.0372 0.71247 37.121 1.391 37.9936C2.38994 39.2783 3.74479 40 5.1575 40C6.57021 40 7.92505 39.2783 8.92399 37.9936C9.1333 37.7245 9.32339 37.4352 9.49312 37.1294C9.66286 37.4352 9.85295 37.7245 10.0623 37.9936C11.0612 39.2783 12.416 40 13.8287 40C15.2415 40 16.5963 39.2783 17.5952 37.9936C17.8046 37.7245 17.9946 37.4352 18.1644 37.1294C18.3341 37.4352 18.5242 37.7245 18.7335 37.9936C19.7324 39.2783 21.0873 40 22.5 40C23.9127 40 25.2676 39.2783 26.2665 37.9936C26.4758 37.7245 26.6659 37.4352 26.8356 37.1294C27.0054 37.4352 27.1955 37.7245 27.4048 37.9936C28.4037 39.2783 29.7585 40 31.1713 40C32.584 40 33.9388 39.2783 34.9377 37.9936C35.147 37.7245 35.3371 37.4352 35.5069 37.1294C35.6766 37.4352 35.8667 37.7245 36.076 37.9936C37.0749 39.2783 38.4298 40 39.8425 40C41.2552 40 42.6101 39.2783 43.609 37.9936C44.2875 37.121 44.7641 36.0372 45 34.8624H43.2232C43.0188 35.6655 42.6754 36.3823 42.2335 36.9507C41.503 37.8901 40.6251 38.2875 39.8425 38.2875C39.0599 38.2875 38.182 37.8901 37.4515 36.9507C37.0096 36.3823 36.6662 35.6655 36.4618 34.8624H34.552C34.3475 35.6655 34.0042 36.3823 33.5622 36.9507C32.8317 37.8901 31.9539 38.2875 31.1713 38.2875C30.3886 38.2875 29.5108 37.8901 28.7803 36.9507C28.3383 36.3823 27.995 35.6655 27.7905 34.8624H25.8807C25.6763 35.6655 25.3329 36.3823 24.891 36.9507C24.1605 37.8901 23.2826 38.2875 22.5 38.2875C21.7174 38.2875 20.8395 37.8901 20.109 36.9507C19.6671 36.3823 19.3237 35.6655 19.1193 34.8624H17.2095C17.005 35.6655 16.6617 36.3823 16.2197 36.9507C15.4892 37.8901 14.6114 38.2875 13.8287 38.2875C13.0461 38.2875 12.1683 37.8901 11.4378 36.9507C10.9958 36.3823 10.6525 35.6655 10.448 34.8624H8.53823C8.33379 35.6655 7.99041 36.3823 7.54847 36.9507C6.81799 37.8901 5.94014 38.2875 5.1575 38.2875C4.37486 38.2875 3.49701 37.8901 2.76653 36.9507C2.32459 36.3823 1.9812 35.6655 1.77676 34.8624H0Z" fill="black"/>
</svg>
